app/themes/uggwc_pro/assets/images/thema/BWL.svg

<svg width="16" height="16" viewBox="0 0 16 16" fill="none" xmlns="http://www.w3.org/2000/svg">
<path d="M15.5 12H2V2.5C2 2.22375 1.77625 2 1.5 2H0.5C0.22375 2 0 2.22375 0 2.5V13C0 13.5522 0.447812 14 1 14H15.5C15.7762 14 16 13.7762 16 13.5V12.5C16 12.2238 15.7762 12 15.5 12ZM14.5 3H10.8106C10.1425 3 9.80781 3.80781 10.2803 4.28031L11.2928 5.29281L9 7.58594L6.70719 5.29313C6.31656 4.9025 5.68344 4.9025 5.29313 5.29313L3.14656 7.43969C2.95125 7.635 2.95125 7.95156 3.14656 8.14688L3.85344 8.85375C4.04875 9.04906 4.36531 9.04906 4.56063 8.85375L6 7.41406L8.29281 9.70687C8.68344 10.0975 9.31656 10.0975 9.70687 9.70687L12.7069 6.70687L13.7194 7.71938C14.1919 8.19187 14.9997 7.85719 14.9997 7.18906V3.5C15 3.22375 14.7762 3 14.5 3Z" fill="#6E6CFF"/>
</svg>

<svg width="16" height="16" fill="none" xmlns="http://www.w3.org/2000/svg"><path d="M15.5 12H2V2.5a.5.5 0 0 0-.5-.5h-1a.5.5 0 0 0-.5.5V13a1 1 0 0 0 1 1h14.5a.5.5 0 0 0 .5-.5v-1a.5.5 0 0 0-.5-.5zm-1-9h-3.69a.75.75 0 0 0-.53 1.28l1.013 1.013L9 7.586 6.707 5.293a1 1 0 0 0-1.414 0L3.147 7.44a.5.5 0 0 0 0 .707l.706.707a.5.5 0 0 0 .708 0L6 7.414l2.293 2.293a1 1 0 0 0 1.414 0l3-3 1.012 1.012A.75.75 0 0 0 15 7.19V3.5A.5.5 0 0 0 14.5 3z" fill="#6E6CFF"/></svg>
